X:1
T:Mingulay
T:Trad. arr. Wim Verkaik
T:Mingulay
C:Trad. arr. Wim Verkaik
%%score [ 1 2 3 4 ]
L:1/8
Q:1/4=120
M:3/4
K:F
V:1 treble nm="Soprano" snm="S"
V:2 treble nm="Mezzo-Soprano" snm="Mezzo"
V:3 treble nm="Alto" snm="A"
V:4 bass nm="Tenor/Bass" snm="T/B"
V:1
 c4 B2 | A6 | A6 | f4 c2 | c3 B A2 | A6 | f4 f2 | e6 | e4 d2 | f2 d2 c2 | B6 | =B6 | c4 B2 | A6 | %14
w: Hiel ya|ho|boys,|let her|go _ _|boys,|Swing her|head|round to-|wards _ the|wea-|ther.|Hiel ya|ho|
 A6 | f4 c2 | c3 B A2 | A6 | f4 f2 | e6 | e4 d2 | f2 d2 c2 | d6 | c6 || G4 E2 | F6 | G6 | A4 B2 | %28
w: boys,|and we'll|go _ _|boys,|sai- ling|home-|ward to|Min- * gu-|lay.|_|What care|we|how|high the|
 A6 | F6 | A4 c2 | c6 | B4 c2 | c2 B2 A2 | B6 | G6 | G4 E2 | F6 | G6 | A4 B2 | A6 | F6 | d4 d2 | %43
w: Minch|is,|what care|we|oh, for|wind _ or|wea-|ther,|Hiel ya|ho|boys,|and we'll|go|boys,|sai- ling|
 c6 | B4 A2 | B4 B2 | B6 | A6 || C4 D2 | F6 | F6 | c4 c2 | A3 G F2 | F6 | c4 A2 | G6 | G4 F2 | %57
w: home-|ward to|Min- gu-|lay.|_|Wives are|wait-|ing|by the|har- * *|bour,|they are|wait-|ing till|
 A2 G2 F2 | D6 | D6 | C4 D2 | F6 | F6 | c4 c2 | A3 G F2 | F6 | c4 A2 | G6- | G4 F2 | A2 G2 F2 | %70
w: break _ o'|day-|oh.|They are|wait-|ing|for their|loved _ _|ones,|to re-|turn|_ to|Min- * gu-|
 F6- | F6 |] %72
w: lay.|_|
V:2
 G4 E2 | F6 | G6 | A4 B2 | A6 | F6 | A4 c2 | c6 | B4 c2 | c2 B2 A2 | B6 | G6 | G4 E2 | F6 | G6 | %15
w: Hiel ya|ho|boys,|let her|go|boys,|Swing her|head|round to-|wards _ the|wea-|ther.|Hiel ya|ho|boys,|
 A4 B2 | A6 | F6 | d4 d2 | c6 | B4 A2 | B4 B2 | B6 | A6 || E4 F2 | C6 | C6 | F4 G2 | F6 | F6 | %30
w: and we'll|go|boys,|sai- ling|home-|ward to|Min- gu-|lay.|_|What care|we|how|high the|Minch|is,|
 F2 G2 A2 | B6 | G4 A2 | A4 A2 | G6 | F6 | E4 F2 | C6 | C6 | F4 G2 | F6 | F6 | B4 c2 | B6 | A4 F2 | %45
w: what _ care|we|oh, for|wind or|wea-|ther,|Hiel ya|ho|boys,|and we'll|go|boys,|sai- ling|home-|ward to|
 D2 F2 E2 | F6- | F6 || G4 E2 | F6 | G6 | A4 B2 | A6 | F6 | A4 c2 | c6 | B4 c2 | c2 B2 A2 | B6 | %59
w: Min- * gu-|lay.|_|Wives are|wait-|ing|by the|har-|bour,|they are|wait-|ing till|break _ o'|day-|
 G6 | G4 E2 | F6 | G6 | A4 B2 | A6 | F6 | d4 d2 | c6 | B4 A2 | B4 B2 | B6 | A6 |] %72
w: oh.|They are|wait-|ing|for their|loved|ones,|to re-|turn|_ to|Min- gu-|lay.|_|
V:3
 E4 F2 | C6 | C6 | F4 G2 | F6 | F6 | F2 G2 A2 | B6 | G4 A2 | A4 A2 | G6 | F6 | E4 F2 | C6 | C6 | %15
w: Hiel ya|ho|boys,|let her|go|boys,|Swing _ her|head|round to-|wards the|wea-|ther.|Hiel ya|ho|boys,|
 F4 G2 | F6 | F6 | B4 c2 | B6 | A4 F2 | D2 F2 E2 | F6- | F6 || C4 D2 | F6 | F6 | c4 c2 | A3 G F2 | %29
w: and we'll|go|boys,|sai- ling|home-|ward to|Min- * gu-|lay.|_|What care|we|how|high the|Minch _ _|
 F6 | c4 A2 | G6 | G4 F2 | A2 G2 F2 | D6 | D6 | C4 D2 | F6 | F6 | c4 c2 | A3 G F2 | F6 | c4 A2 | %43
w: is,|what care|we|oh, for|wind _ or|wea-|ther,|Hiel ya|ho|boys,|and we'll|go _ _|boys,|sai- ling|
 G6 | G4 F2 | A2 G2 F2 | F6- | F6 || C4 B,2 | A,6 | A,6 | F4 C2 | C3 B, A,2 | A,6 | F4 F2 | E6 | %56
w: home-|ward to|Min- * gu-|lay.|_|Wives are|wait-|ing|by the|har- * *|bour,|they are|wait-|
 E4 D2 | F2 D2 C2 | B,6 | =B,6 | C2 C2 B,2 | A,6 | A,6 | F4 C2 | C3 B, A,2 | A,6 | F4 F2 | E6- | %68
w: ing till|break _ o'|day-|oh.|They _ are|wait-|ing|for their|loved _ _|ones,|to re-|turn|
 E4 D2 | F2 D2 C2 | D6 | C6 |] %72
w: _ to|Min- * gu-|lay.|_|
V:4
 C,4 D,2 | F,6 | F,6 | C4 C2 | A,3 G, F,2 | F,6 | C4 A,2 | G,6 | G,4 F,2 | A,2 G,2 F,2 | D,6 | %11
w: Hiel ya|ho|boys,|let her|go _ _|boys,|Swing her|head|round to-|wards _ the|wea-|
 D,6 | C,4 D,2 | F,6 | F,6 | C4 C2 | A,3 G, F,2 | F,6 | C4 A,2 | G,6 | G,4 F,2 | A,2 G,2 F,2 | %22
w: ther.|Hiel ya|ho|boys,|and we'll|go _ _|boys,|sai- ling|home-|ward to|Min- * gu-|
 F,6- | F,6 || C4 B,2 | A,6 | A,6 | F4 C2 | C3 B, A,2 | A,6 | F,4 F,2 | E,6 | E,4 D,2 | %33
w: lay.|_|What care|we|how|high the|Minch _ _|is,|what care|we|oh, for|
 F,2 D,2 C,2 | B,,6 | =B,,6 | C,2 C2 B,2 | A,6 | A,6 | F4 C2 | C3 B, A,2 | A,6 | F,4 F,2 | E,6 | %44
w: wind _ or|wea-|ther,|Hiel _ ya|ho|boys,|and we'll|go _ _|boys,|sai- ling|home-|
 E,4 D,2 | F,2 D,2 C,2 | D,6 | C,6 || E,4 F,2 | C,6 | C,6 | F,4 G,2 | F,6 | F,6 | F,2 G,2 A,2 | %55
w: ward to|Min- * gu-|lay.|_|Wives are|wait-|ing|by the|har-|bour,|they _ are|
 B,6 | G,4 A,2 | A,4 A,2 | G,6 | F,6 | E,4 F,2 | C,6 | C,6 | F,4 G,2 | F,6 | F,6 | B,4 C2 | B,6 | %68
w: wait-|ing till|break o'|day-|oh.|They are|wait-|ing|for their|loved|ones,|to re-|turn|
 A,4 F,2 | D,2 F,2 E,2 | F,6- | [F,,F,]6 |] %72
w: _ to|Min- * gu-|lay.|_|

